build/img/main/p2.svg

<svg width="139" height="45" viewBox="0 0 139 45" fill="none" xmlns="http://www.w3.org/2000/svg">
<path d="M115.701 38.3604C115.699 38.3604 115.276 38.7371 115.276 38.7371C114.67 39.277 114.047 39.8548 113.295 39.5658C113.087 39.4905 112.941 39.2145 112.906 39.0003C112.872 37.4552 113.569 36.0236 114.246 34.6296L114.42 34.265C116.366 31.0244 118.628 27.206 121.951 24.5559C122.511 24.1531 123.118 23.8146 123.759 24.0786C123.907 24.2164 124.079 24.4553 124.079 24.6937C124.079 24.7694 124.011 24.9703 123.973 25.0327C123.045 26.5282 122.161 28.0982 121.301 29.6053C119.622 32.5825 117.88 35.6596 115.701 38.3608L115.701 38.3604ZM97.6987 30.7232C97.5716 30.8117 95.3269 30.0577 94.8932 27.9852C94.5252 26.2009 95.7574 24.8067 96.9495 24.1038C97.4612 23.7017 98.232 23.5639 98.7974 23.764C99.3221 24.1162 99.4644 24.7447 99.4644 25.422C99.4644 25.8374 99.4091 26.264 99.3604 26.6533L99.3495 26.7415C98.9756 28.1354 98.4032 29.5047 97.6987 30.7234V30.7232ZM89.1245 39.1519C88.8956 38.8128 88.8197 38.442 88.8121 38.041C88.7682 35.5781 91.4255 31.1674 93.3013 28.7644H93.3054C94.0915 30.4808 95.8715 31.5841 96.946 32.049C95.6114 35.0137 91.0343 41.3627 89.125 39.152L89.1245 39.1519ZM121.52 39.5893C121.075 39.8907 120.451 39.659 120.685 38.9684C121.266 37.2098 123.577 33.626 123.577 33.626L130.013 22.2417H125.604C125.395 22.585 124.947 23.3733 124.947 23.3733C124.743 23.0345 124.133 22.281 123.882 22.1183C122.805 21.4394 121.224 21.7604 120.134 22.3757C115.394 25.1396 111.936 30.6005 109.208 34.8585C109.208 34.8585 106.337 39.5922 104.743 39.9443C103.499 40.0449 103.627 38.3735 103.681 37.9841C104.162 35.1699 105.279 32.4946 106.405 30.0703C108.694 28.4876 111.307 26.4151 113.682 24.1416C118.834 19.2297 123.178 13.6649 123.813 12.4216C123.813 12.4216 123.126 12.5599 122.314 12.5848C118.35 18.0991 110.238 26.1138 107.779 27.3064C108.868 24.6932 115.907 12.2202 121.898 6.25414L122.84 5.34941C124.298 3.92998 125.808 2.47292 126.985 2.23421C127.109 2.22171 127.269 2.23421 127.408 2.52359C127.46 3.62879 127.048 4.44537 126.574 5.37481L125.911 6.73163C125.911 6.73163 126.851 6.55574 127.468 6.35424C128.184 5.01081 128.977 3.50301 128.684 1.70715C128.587 1.12922 128.167 0.689689 127.619 0.58911C125.832 0.249957 123.885 1.56847 122.318 2.63653L122.254 2.67394C114.199 8.96716 107.397 18.0368 101.45 30.422C101.019 30.7481 99.3539 31.138 99.0708 30.9493C99.6581 29.7437 100.398 28.1229 100.768 26.3644C100.832 25.8619 100.891 25.3471 100.891 24.8448C100.891 23.7636 100.631 22.7465 99.6596 22.0433C98.5209 21.4779 97.1135 21.7419 96.1646 22.1687C91.9137 23.9273 88.7367 28.2738 86.4441 31.8531C85.2111 34.1273 83.9816 36.563 83.6412 39.3523C83.4014 41.5376 83.8895 42.9444 85.1355 43.6481C86.4169 44.3009 88.0297 43.6224 88.6633 43.2961C92.9698 41.0352 95.9789 36.5009 98.3507 32.3554C98.445 32.343 99.74 32.3056 100.72 32.054C100.733 32.054 100.738 32.054 100.76 32.0671C100.704 32.2547 100.198 33.7626 100.198 33.7626C98.6942 38.1586 97.9991 41.1484 99.419 42.9197C101.448 45.4196 104.807 42.8322 107.54 39.4149C106.954 43.5098 109.082 44.1507 110.704 43.8369C112.568 43.3347 114.644 41.3496 115.608 40.3325C115.298 41.5255 115.383 43.6612 117.078 43.8745C118.24 44.0887 119.109 43.4584 120.115 42.9181C123.724 40.9584 128.045 34.4283 129.167 32.5403H127.696C126.101 34.9434 124.072 38.0941 121.52 39.5898L121.52 39.5893ZM65.9183 15.2046H70.049L72.3803 11.4286H68.2488L65.9183 15.2046ZM131.902 5.17345C128.752 6.9575 125.487 8.11282 121.535 7.71092C120.44 8.94231 119.373 10.2108 118.39 11.5171C123.937 12.9239 129.818 9.79623 133.098 6.81958C136.567 3.81731 138.347 0.0367158 138.347 0.0367158C138.347 0.0367158 135.746 3.00087 131.902 5.17358L131.902 5.17345ZM97.1686 4.21915C96.5118 11.7306 90.6565 16.1403 89.2078 16.4911C88.3299 16.6668 86.8318 16.2776 88.1691 13.1252C90.1386 8.87908 93.5011 5.27458 97.1088 3.42777C97.1966 3.74186 97.1943 3.94233 97.1685 4.21901L97.1686 4.21915ZM85.7593 23.1486C85.3398 22.2444 84.3439 21.6665 83.2827 21.7292C79.8364 22.0434 76.4655 24.8696 74.6955 28.927C73.7667 31.0123 73.2599 32.733 72.9275 35.4712C73.9991 34.2406 76.185 32.2184 78.6655 31.1129C78.6655 31.1129 79.003 28.4877 80.7242 26.1512C81.3755 25.1838 82.6789 23.6263 84.1424 24.0407C85.4211 24.468 84.9717 27.9978 83.2722 31.4135C82.0147 33.9261 80.0904 36.439 78.1435 38.172C76.4221 39.6292 73.8753 41.3876 71.6471 40.0311C70.2436 39.2025 69.5278 37.4686 69.6791 35.2327C70.3496 28.8896 73.2452 23.488 77.3885 17.3331C81.6612 11.6178 86.371 5.75179 92.7159 2.62321C94.0101 1.9701 95.2085 1.8194 96.2445 2.22137C96.2445 2.22137 90.2885 5.48727 87.4493 11.5296C86.7271 13.0623 85.7226 15.1343 86.7341 16.9684C87.2626 17.9228 88.2012 17.9983 88.9568 17.9481C92.4369 17.144 94.6852 13.9033 96.5224 10.9391C97.5875 8.69069 98.5341 6.45475 98.5341 3.96726C98.5341 3.66586 98.5184 3.2641 98.4928 2.96229C100.155 2.08338 103.565 3.6406 103.565 3.6406C106.229 4.5202 111.902 8.85408 113.815 9.68274C114.749 8.60267 116.283 6.96986 117.146 6.15322L115.896 5.38689C113.894 4.16841 111.778 3.01268 109.696 1.86972C104.966 -0.704959 101.116 0.199221 99.1568 0.902724C98.3867 1.17892 97.6829 1.41763 97.6829 1.41763C96.2288 -0.164991 93.8441 -0.0146377 92.087 0.412737C85.7679 2.22144 79.9011 6.63023 73.6113 14.2803C68.9868 20.2721 66.118 25.4476 64.5896 30.5596C63.411 34.0011 63.0529 39.0632 65.9293 42.0654C68.3749 44.6146 71.6178 44.0625 73.908 43.1457C78.8697 40.7088 83.329 35.4578 85.5514 29.4162C86.0876 27.6202 86.6827 25.0828 85.7595 23.1482L85.7593 23.1486ZM30.761 17.3207C30.7527 17.3458 29.9183 19.2548 29.9183 19.2548C29.7977 19.3552 29.607 19.3052 29.3884 19.2548L29.0138 19.1917C27.8378 18.8276 26.9506 18.0487 26.6772 17.1193C26.2999 15.3104 27.8495 13.8911 28.5323 13.3763C29.1873 12.9237 30.2058 12.6851 30.7972 13.1501C31.1619 13.5772 31.3001 14.1298 31.3001 14.7331C31.3002 15.5494 31.0476 16.4663 30.761 17.3207H30.761ZM28.9685 20.9505C28.9685 20.9505 28.9307 21.0639 28.9119 21.101C28.9071 21.101 27.0152 24.178 27.0152 24.178C25.8734 25.6982 24.4478 27.608 22.6656 28.5246C22.1374 28.7005 21.4072 28.8138 21.0352 28.3494C20.2463 27.4071 20.6529 26.1008 20.9832 25.0457L21.1001 24.6688C22.0471 22.1066 23.5497 19.8451 25.0121 17.747C25.0304 17.7347 25.0713 17.7222 25.0861 17.7222C25.0896 17.7348 25.0954 17.7348 25.098 17.76C26.0157 19.5182 27.7365 20.3344 29.0235 20.7118C29.0313 20.7118 29.0395 20.7242 29.0395 20.7495C29.0397 20.7869 29.0187 20.8375 28.9686 20.9501L28.9685 20.9505ZM52.6353 18.9282C53.4816 17.7603 55.9448 14.6324 56.5453 14.1049C58.5649 12.3331 59.3721 13.1127 59.442 13.665C57.5571 17.0313 55.3326 20.8874 53.241 24.3545C53.2451 24.3421 52.5865 25.3467 52.5865 25.3467C51.6627 26.7533 50.7325 27.9591 49.2154 28.8007C48.999 28.8639 48.6424 28.8891 48.405 28.7127C48.1193 28.5242 48.0066 28.2101 48.0388 27.8833C48.1297 26.8034 49.2324 23.5004 52.6353 18.928V18.9282ZM31.6611 11.2911C29.0501 9.58285 23.8023 12.8487 19.5992 18.4504C15.7554 23.4754 14.0957 29.3157 15.902 32.0165C18.5889 35.1944 23.577 30.5721 25.6982 28.0979L25.9718 27.8086C27.4143 26.2636 28.5288 24.4044 29.6075 22.6206C29.6075 22.6206 30.5989 20.9876 30.6463 20.9121C31.259 20.7995 31.997 20.6236 32.8287 20.3848C32.8169 20.4222 29.6468 25.7358 29.9702 28.3735C30.0709 29.1781 29.9939 32.1173 32.8717 33.009C36.7072 33.6501 39.7702 30.6852 42.4718 28.0474C42.4718 28.0474 42.9322 27.6082 43.1926 27.3574C43.1415 27.562 43.0909 27.7667 43.0408 27.9715C41.9179 31.8656 43.4315 32.6826 44.3783 32.9841C47.2397 33.8136 50.6582 29.6681 50.6692 29.6681C50.5806 30.9739 50.3214 32.0542 51.7018 32.9209C53.0047 33.3861 54.3233 32.6771 55.3255 32.0113C58.9357 29.4739 61.8441 25.5028 64.193 22.0701H62.6946C62.6769 22.0701 58.9969 27.3887 56.6075 28.5448C56.604 28.5448 56.1689 28.7674 55.9183 28.5912C55.6081 28.3273 55.7306 27.7787 55.9217 27.3901C55.9338 27.3647 65.1479 11.4286 65.1479 11.4286H60.7975C60.7975 11.4286 60.3223 12.1954 60.2835 12.2456C60.2543 12.2206 60.1846 12.0887 60.1362 12.0256C57.4409 8.3076 51.3369 14.0265 46.7414 20.6582C44.9721 23.2084 42.7197 26.0797 40.384 28.1525C40.384 28.1525 36.9239 31.3154 35.4455 29.043C34.9051 28.0881 35.0713 26.6922 35.3762 25.7756C37.0975 20.8893 40.0636 16.455 43.4388 13.7789C44.3917 13.0382 45.4273 12.824 45.9413 13.1382C46.4309 13.4276 46.51 14.143 46.2001 14.6329C45.4141 14.6079 44.7843 14.8461 44.2723 15.3737C43.2637 16.4289 42.9133 17.4465 43.234 18.4014C44.7918 20.6121 47.8987 16.2407 47.7484 13.5777C47.6947 12.6229 47.1838 11.7187 46.4216 11.2786C45.2855 10.6007 43.5522 10.7762 42.4305 11.3167C40.929 11.8817 38.552 13.8536 37.1646 15.3864C35.4179 17.3086 32.4224 19.4438 31.4855 19.2046C31.7924 18.3878 34.3227 13.2254 31.6609 11.2915L31.6611 11.2911ZM53.5283 39.2397C48.4047 35.9484 41.4512 35.3709 30.2374 38.4734C18.2828 41.2748 14.2966 43.0706 9.06215 39.4656C7.05114 37.6946 6.3301 34.8432 6.86856 30.7361C8.1173 24.0406 11.4918 17.597 17.4861 10.4501C20.8319 6.73211 23.9354 3.54139 28.0335 2.2603C31.1743 1.45649 30.8806 3.91796 30.5006 4.26995C30.0996 4.26995 29.4259 4.33298 28.9053 4.67172C28.4828 4.99852 27.3228 6.05374 27.2605 7.47317C27.1707 9.64608 29.4258 9.19379 30.3984 8.00078C31.4468 6.65639 32.9962 4.08177 31.7774 1.6823C31.2666 0.828234 30.384 0.238011 29.2881 0.0369905C25.5356 -0.176868 22.0405 1.60691 18.8151 3.57901C11.7631 8.46516 6.1204 15.2359 2.92797 22.6471C1.08714 27.1187 -0.577579 33.5241 1.91785 38.7377C3.84817 42.3551 7.85575 44.2766 12.6373 43.8748C15.9907 43.5235 20.0452 42.4426 22.7729 41.7901C25.5001 41.1365 39.46 36.3511 44.0473 44.6797C44.0473 44.6797 45.5726 41.727 49.3845 41.6641C52.5184 41.3757 57.0395 42.5688 60.3318 44.9801C59.2349 43.3351 56.1251 40.9108 53.5308 39.2399L53.5283 39.2397Z" fill="white"/>
</svg>

<svg width="139" height="45" fill="none" xmlns="http://www.w3.org/2000/svg"><path d="M115.701 38.36c-.002 0-.425.377-.425.377-.606.54-1.229 1.118-1.981.829-.208-.076-.354-.352-.389-.566-.034-1.545.663-2.976 1.34-4.37l.174-.365c1.946-3.24 4.208-7.059 7.531-9.71.56-.402 1.167-.74 1.808-.476.148.137.32.376.32.615 0 .075-.068.276-.106.339-.928 1.495-1.812 3.065-2.672 4.572-1.679 2.978-3.421 6.055-5.6 8.756zm-18.002-7.637c-.127.089-2.372-.665-2.806-2.738-.368-1.784.864-3.178 2.056-3.881.512-.402 1.283-.54 1.848-.34.525.352.667.98.667 1.658 0 .415-.055.842-.104 1.231l-.01.088a16.697 16.697 0 01-1.651 3.982zm-8.575 8.429c-.228-.34-.304-.71-.312-1.111-.044-2.463 2.614-6.874 4.49-9.277h.003c.786 1.717 2.566 2.82 3.641 3.285-1.335 2.965-5.912 9.314-7.821 7.103zm32.396.437c-.445.302-1.069.07-.835-.62.581-1.76 2.892-5.343 2.892-5.343l6.436-11.384h-4.409a64.053 64.053 0 00-.657 1.131c-.204-.338-.814-1.092-1.065-1.255-1.077-.679-2.658-.358-3.748.258-4.74 2.764-8.198 8.224-10.926 12.482 0 0-2.871 4.734-4.465 5.086-1.244.1-1.116-1.57-1.062-1.96.481-2.814 1.598-5.49 2.724-7.914a61.018 61.018 0 007.277-5.928c5.152-4.912 9.496-10.477 10.131-11.72 0 0-.687.138-1.499.163-3.964 5.514-12.076 13.529-14.535 14.721 1.089-2.613 8.128-15.086 14.119-21.052l.942-.905c1.458-1.419 2.968-2.876 4.145-3.115.124-.012.284 0 .423.29.052 1.105-.36 1.921-.834 2.85l-.663 1.358s.94-.176 1.557-.378c.716-1.343 1.509-2.851 1.216-4.647-.097-.578-.517-1.017-1.065-1.118-1.787-.339-3.734.98-5.301 2.048l-.064.037c-8.055 6.293-14.857 15.363-20.804 27.748-.431.326-2.096.716-2.38.527.588-1.205 1.328-2.826 1.698-4.585.064-.502.123-1.017.123-1.52 0-1.08-.26-2.098-1.231-2.8-1.14-.566-2.546-.302-3.495.125-4.251 1.758-7.428 6.105-9.72 9.684-1.234 2.274-2.463 4.71-2.804 7.5-.24 2.185.248 3.591 1.494 4.295 1.282.653 2.895-.026 3.528-.352 4.307-2.26 7.316-6.795 9.688-10.94.094-.013 1.389-.05 2.369-.302.013 0 .018 0 .04.013-.056.188-.562 1.696-.562 1.696-1.504 4.396-2.199 7.385-.779 9.157 2.029 2.5 5.388-.088 8.121-3.505-.586 4.095 1.542 4.736 3.164 4.422 1.864-.502 3.94-2.487 4.904-3.505-.31 1.194-.225 3.33 1.47 3.542 1.162.215 2.031-.416 3.037-.956 3.609-1.96 7.93-8.49 9.052-10.378h-1.471c-1.595 2.403-3.624 5.554-6.176 7.05zM65.918 15.205h4.131l2.331-3.776h-4.13l-2.33 3.776zm65.984-10.032c-3.15 1.784-6.415 2.94-10.367 2.538a60.642 60.642 0 00-3.145 3.806c5.547 1.407 11.428-1.72 14.708-4.697 3.469-3.003 5.249-6.783 5.249-6.783S135.746 3 131.902 5.174zM97.169 4.22c-.657 7.512-6.513 11.921-7.961 12.272-.878.176-2.376-.213-1.039-3.366 1.97-4.246 5.332-7.85 8.94-9.697.088.314.085.514.06.791zm-11.41 18.93c-.42-.905-1.415-1.483-2.476-1.42-3.447.314-6.817 3.14-8.588 7.198-.928 2.085-1.435 3.806-1.767 6.544 1.071-1.23 3.257-3.253 5.737-4.358 0 0 .338-2.625 2.06-4.962.65-.967 1.954-2.525 3.417-2.11 1.28.427.83 3.957-.87 7.372-1.257 2.513-3.182 5.026-5.129 6.759-1.72 1.457-4.268 3.216-6.496 1.86-1.403-.83-2.12-2.563-1.968-4.8.67-6.342 3.566-11.744 7.71-17.899 4.272-5.715 8.982-11.581 15.327-14.71 1.294-.653 2.493-.804 3.529-.402 0 0-5.957 3.266-8.796 9.309-.722 1.532-1.726 3.604-.715 5.438.529.955 1.467 1.03 2.223.98 3.48-.804 5.728-4.045 7.565-7.009 1.066-2.248 2.012-4.484 2.012-6.972 0-.301-.016-.703-.041-1.005 1.662-.879 5.072.679 5.072.679 2.664.88 8.337 5.213 10.25 6.042.934-1.08 2.468-2.713 3.331-3.53l-1.25-.766c-2.002-1.219-4.118-2.374-6.2-3.517-4.73-2.575-8.58-1.67-10.54-.967-.77.276-1.473.515-1.473.515C96.229-.165 93.844-.015 92.087.413 85.767 2.22 79.901 6.63 73.611 14.28c-4.624 5.992-7.493 11.168-9.021 16.28-1.179 3.441-1.537 8.503 1.34 11.505 2.445 2.55 5.688 1.998 7.978 1.08 4.962-2.436 9.421-7.687 11.643-13.729.537-1.796 1.132-4.333.209-6.268zm-54.998-5.83a613.83 613.83 0 01-.843 1.934c-.12.1-.311.05-.53 0l-.374-.063c-1.176-.364-2.063-1.143-2.337-2.073-.377-1.809 1.172-3.228 1.855-3.743.655-.452 1.674-.69 2.265-.226.365.427.503.98.503 1.583 0 .816-.252 1.733-.539 2.588zm-1.793 3.63s-.037.113-.056.15c-.005 0-1.897 3.077-1.897 3.077-1.142 1.52-2.567 3.43-4.35 4.347-.528.176-1.258.289-1.63-.176-.789-.942-.382-2.248-.052-3.303l.117-.377c.947-2.562 2.45-4.824 3.912-6.922a.194.194 0 01.074-.025c.004.013.01.013.012.038.918 1.758 2.639 2.574 3.925 2.952.008 0 .017.012.017.038 0 .037-.021.087-.071.2zm23.667-2.023c.847-1.168 3.31-4.296 3.91-4.823 2.02-1.772 2.827-.992 2.897-.44a397.009 397.009 0 01-6.201 10.69c.004-.013-.654.992-.654.992-.924 1.406-1.855 2.612-3.372 3.454-.216.063-.573.088-.81-.088-.286-.189-.398-.503-.366-.83.09-1.08 1.193-4.383 4.596-8.955zM31.661 11.29c-2.61-1.708-7.859 1.558-12.062 7.16-3.844 5.024-5.503 10.865-3.697 13.566 2.687 3.177 7.675-1.445 9.796-3.92l.274-.288c1.442-1.545 2.557-3.405 3.636-5.188 0 0 .99-1.633 1.038-1.709a23.506 23.506 0 002.183-.527c-.012.037-3.182 5.35-2.859 7.988.1.805.024 3.744 2.902 4.636 3.835.641 6.898-2.324 9.6-4.962 0 0 .46-.439.72-.69l-.151.614c-1.123 3.895.39 4.712 1.337 5.013 2.862.83 6.28-3.316 6.291-3.316-.088 1.306-.348 2.386 1.033 3.253 1.303.465 2.621-.244 3.623-.91 3.61-2.537 6.52-6.508 8.868-9.94h-1.498c-.018 0-3.698 5.318-6.087 6.474-.004 0-.44.222-.69.046-.31-.264-.187-.812.004-1.2.012-.026 9.226-15.962 9.226-15.962h-4.35s-.476.766-.515.817c-.029-.025-.098-.157-.147-.22-2.695-3.718-8.8 2-13.395 8.632-1.769 2.55-4.021 5.422-6.357 7.494 0 0-3.46 3.163-4.938.891-.54-.955-.375-2.35-.07-3.267 1.721-4.887 4.688-9.321 8.063-11.997.953-.74 1.988-.955 2.502-.64.49.289.569 1.004.26 1.494-.787-.025-1.417.213-1.929.74-1.008 1.056-1.359 2.074-1.038 3.028 1.558 2.211 4.665-2.16 4.514-4.823-.053-.955-.564-1.86-1.326-2.3-1.136-.677-2.87-.502-3.991.039-1.502.565-3.879 2.537-5.266 4.07-1.747 1.922-4.743 4.057-5.68 3.818.307-.817 2.838-5.98.176-7.913zm21.867 27.95c-5.123-3.292-12.077-3.87-23.29-.767-11.955 2.802-15.941 4.598-21.176.993-2.01-1.771-2.732-4.623-2.193-8.73 1.248-6.695 4.623-13.139 10.617-20.286 3.346-3.718 6.45-6.909 10.547-8.19 3.141-.804 2.848 1.658 2.468 2.01-.401 0-1.075.063-1.596.402-.422.327-1.582 1.382-1.645 2.801-.09 2.173 2.166 1.72 3.138.528 1.049-1.345 2.598-3.92 1.38-6.319-.511-.854-1.394-1.444-2.49-1.645-3.752-.214-7.247 1.57-10.473 3.542C11.763 8.465 6.12 15.236 2.928 22.647c-1.84 4.472-3.506 10.877-1.01 16.09 1.93 3.618 5.938 5.54 10.72 5.138 3.353-.352 7.407-1.432 10.135-2.085 2.727-.654 16.687-5.439 21.274 2.89 0 0 1.526-2.953 5.338-3.016 3.133-.288 7.654.905 10.947 3.316-1.097-1.645-4.207-4.07-6.801-5.74h-.003z" fill="#fff"/></svg>
